packages/core/src/svgs/networks/branded/zyx.svg

<svg width="24" height="24" viewBox="0 0 24 24" fill="none" xmlns="http://www.w3.org/2000/svg">
<path d="M15.4771 12.0261L20.9381 2.49608C21.0681 2.28721 20.9121 2 20.652 2H3.33279C3.07274 2 2.94272 2.2611 3.04674 2.49608L8.50776 12L3.04674 21.53C2.91671 21.7389 3.07274 22 3.33279 22H20.678C20.9381 22 21.0681 21.7389 20.9641 21.53L15.4771 12.0261ZM11.6283 20.4073H5.5172L8.55977 15.107L12.9026 7.56136C12.6945 7.19582 12.3305 7.03917 11.9924 7.03917C11.6283 7.03917 11.2903 7.22193 11.0822 7.56136L9.44393 10.4073L5.5172 3.6188H18.4676L15.4251 8.91906L11.0822 16.4648C11.2903 16.8303 11.6283 16.9869 11.9924 16.9869C12.3565 16.9869 12.6945 16.8042 12.9026 16.4648L14.5409 13.6188L15.035 14.4804C16.5693 17.1175 14.6709 20.4073 11.6283 20.4073Z" fill="#F3D131"/>
</svg>

<svg xmlns="http://www.w3.org/2000/svg" width="24" height="24" fill="none" viewBox="0 0 24 24">
    <path fill="#F3D131" d="m15.477 12.026 5.461-9.53c.13-.209-.026-.496-.286-.496H3.332c-.26 0-.39.261-.285.496L8.507 12l-5.46 9.53c-.13.209.026.47.286.47h17.345c.26 0 .39-.261.286-.47zm-3.849 8.381h-6.11l3.042-5.3 4.343-7.546a1.03 1.03 0 0 0-.91-.522c-.365 0-.703.183-.91.522l-1.64 2.846L5.518 3.62h12.95l-3.042 5.3-4.343 7.546c.208.365.546.522.91.522s.702-.183.91-.522l1.639-2.846.494.861c1.534 2.637-.364 5.927-3.407 5.927"/>
</svg>
